docroot/themes/iucn_who/images/social_media/facebook_share.svg

<?xml version="1.0" encoding="UTF-8" standalone="no"?>
<svg width="34px" height="34px" viewBox="0 0 34 34" version="1.1" xmlns="http://www.w3.org/2000/svg" xmlns:xlink="http://www.w3.org/1999/xlink">
    <!-- Generator: Sketch 3.8.3 (29802) - http://www.bohemiancoding.com/sketch -->
    <title>Group 3</title>
    <desc>Created with Sketch.</desc>
    <defs></defs>
    <g id="Symbols" stroke="none" stroke-width="1" fill="none" fill-rule="evenodd">
        <g id="Footer-white" transform="translate(-90.000000, -58.000000)">
            <g id="Group-2" transform="translate(90.000000, 58.000000)">
                <g id="Group-3">
                    <path d="M0.38862132,16.9994 C0.38862132,26.279 7.8967901,33.7994 17.1586218,33.7994 C26.4204535,33.7994 33.9286222,26.279 33.9286222,16.9994 C33.9286222,7.721 26.4204535,0.1994 17.1586218,0.1994 C7.8967901,0.1994 0.38862132,7.721 0.38862132,16.9994 Z" id="Fill-2" fill="#FFFFFF"></path>
                    <path d="M17.9638875,25 L14.6548511,25 L14.6548511,16.9996672 L13,16.9996672 L13,14.2421368 L14.6548511,14.2421368 L14.6548511,12.5869529 C14.6548511,10.3376602 15.5887835,9 18.2408055,9 L20.4501581,9 L20.4501581,11.7575304 L19.070228,11.7575304 C18.037111,11.7575304 17.9685472,12.1429522 17.9685472,12.8618739 L17.9638875,14.241804 L20.4661341,14.241804 L20.1732401,16.9993343 L17.9638875,16.9993343 L17.9638875,25 L17.9638875,25 Z" id="Path" fill="#134780"></path>
                </g>
            </g>
        </g>
    </g>
</svg>

<svg width="34" height="34" viewBox="0 0 34 34" xmlns="http://www.w3.org/2000/svg"><title>Group 3</title><g fill="none" fill-rule="evenodd"><path d="M.389 17c0 9.279 7.508 16.8 16.77 16.8 9.261 0 16.77-7.521 16.77-16.8S26.42.2 17.159.2C7.897.2.389 7.72.389 17z" fill="#FFF"/><path d="M17.964 25h-3.31v-8H13v-2.758h1.655v-1.655c0-2.25.934-3.587 3.586-3.587h2.21v2.758h-1.38c-1.034 0-1.102.385-1.102 1.104l-.005 1.38h2.502l-.293 2.757h-2.21V25z" fill="#134780"/></g></svg>
